TV/Source/Gay Network - Dark.svg

<svg height="865pt" viewBox="0 0 1615 865" width="1615pt" xmlns="http://www.w3.org/2000/svg" xmlns:xlink="http://www.w3.org/1999/xlink"><linearGradient id="a" gradientUnits="userSpaceOnUse" x1="1248.1011" x2="1328" y1="56.233459" y2="354.42053"><stop offset="0" stop-color="#fcb0ce"/><stop offset="1" stop-color="#d10f64"/></linearGradient><linearGradient id="b" gradientUnits="userSpaceOnUse" x1="818.45642" x2="818.45642" y1="867.09198" y2="-3.586385"><stop offset="0"/><stop offset="1" stop-color="#2e2e2e"/></linearGradient><path d="m424.26 0h15.5c44.31.97 88.51 8.48 130.5 22.76 67.78 23 129.85 62.92 178.27 115.68 13.77 14.44 26.09 30.2 37.59 46.47 2.4581 3.77143 3.96631 6.65479 6.21 10.82-69.66 30.74-139.25 61.63-208.89 92.4-36.17-38.43-87.69-61.74-140.36-64.13-6.72-.01-13.48199-.74947-20.15 0-134.55241 15.12339-199.13356 105.87557-197.92 225.03 1.13267 111.21187 89.79254 171.96657 182.83 190.12 44.26652 8.63726 113.03431-12.70181 151.61-41.68 25.00364-18.78282 45.24-43.65 59.46-71.47h-139.8996v-172.96c113.66-.09 228.3196-.01 341.9896-.04.04-98.34-.07-196.67.05-295l287.78.01 243.14 392.45.11-392.44 262.92-.02v757h-278.91l-257.13-386.4.04 386.4h-258c-.06-64.68.11-129.35-.08-194.03-3.17 5.84-5.78 11.99-9.51 17.51-2.91 6.72-6.89 12.94-10.86 19.08-7.02 12.63-15.66 24.26-24.26 35.83-15.66 21.34-33.83 40.74-53.25 58.69-41.29 37.68-89.92 67.34-142.46 86.49-44.72 16.55-92.23 25.27-139.88 26.43h-16.47c-71.83-1.38-143.25-20.84-205.66-56.47-61.54-34.93-114.21-85.28-151.88-145.18-20.08-31.83-35.97-66.29-47.14-102.22-12.11-38.63-18.42-78.95-19.55-119.39v-20.4c.36-6.82.8-13.62 1.18-20.43 5.47-76.92 32.15-152.17 76.22-215.44 33.98-48.97 78.25-90.75 129.09-121.86 65.21-40.1 141.24-62.18 217.77-63.61z" fill="url(#b)"/><path d="m1142.7 55h185.3v304.44z" fill="url(#a)"/></svg>

<?xml version="1.0" encoding="UTF-8" standalone="no"?>
<svg
   xmlns:dc="http://purl.org/dc/elements/1.1/"
   xmlns:cc="http://creativecommons.org/ns#"
   xmlns:rdf="http://www.w3.org/1999/02/22-rdf-syntax-ns#"
   xmlns:svg="http://www.w3.org/2000/svg"
   xmlns="http://www.w3.org/2000/svg"
   xmlns:xlink="http://www.w3.org/1999/xlink"
   xmlns:sodipodi="http://sodipodi.sourceforge.net/DTD/sodipodi-0.dtd"
   xmlns:inkscape="http://www.inkscape.org/namespaces/inkscape"
   width="1615pt"
   height="865pt"
   viewBox="0 0 1615 865"
   version="1.1"
   id="svg2"
   inkscape:version="0.91 r13725"
   sodipodi:docname="Gay Network - Dark.svg">
  <metadata
     id="metadata14">
    <rdf:RDF>
      <cc:Work
         rdf:about="">
        <dc:format>image/svg+xml</dc:format>
        <dc:type
           rdf:resource="http://purl.org/dc/dcmitype/StillImage" />
        <dc:title></dc:title>
      </cc:Work>
    </rdf:RDF>
  </metadata>
  <defs
     id="defs12">
    <linearGradient
       inkscape:collect="always"
       id="linearGradient4140">
      <stop
         style="stop-color:#000000;stop-opacity:1"
         offset="0"
         id="stop4142" />
      <stop
         style="stop-color:#2e2e2e;stop-opacity:1"
         offset="1"
         id="stop4145" />
    </linearGradient>
    <linearGradient
       inkscape:collect="always"
       id="linearGradient4142">
      <stop
         style="stop-color:#fcb0ce;stop-opacity:1"
         offset="0"
         id="stop4144" />
      <stop
         style="stop-color:#d10f64;stop-opacity:1"
         offset="1"
         id="stop4146" />
    </linearGradient>
    <linearGradient
       inkscape:collect="always"
       xlink:href="#linearGradient4142"
       id="linearGradient4148"
       x1="1248.1011"
       y1="56.233459"
       x2="1328"
       y2="354.42053"
       gradientUnits="userSpaceOnUse" />
    <linearGradient
       inkscape:collect="always"
       xlink:href="#linearGradient4140"
       id="linearGradient4147"
       x1="818.45642"
       y1="867.09198"
       x2="818.45642"
       y2="-3.586385"
       gradientUnits="userSpaceOnUse" />
  </defs>
  <sodipodi:namedview
     pagecolor="#ffffff"
     bordercolor="#666666"
     borderopacity="1"
     objecttolerance="10"
     gridtolerance="10"
     guidetolerance="10"
     inkscape:pageopacity="0"
     inkscape:pageshadow="2"
     inkscape:window-width="1920"
     inkscape:window-height="1017"
     id="namedview10"
     showgrid="false"
     inkscape:zoom="0.28532508"
     inkscape:cx="248.51937"
     inkscape:cy="537.53015"
     inkscape:window-x="-8"
     inkscape:window-y="-8"
     inkscape:window-maximized="1"
     inkscape:current-layer="svg2" />
  <g
     id="#000000ff"
     style="fill:url(#linearGradient4147);fill-opacity:1">
    <path
       d="m 424.26,0 15.5,0 c 44.31,0.97 88.51,8.48 130.5,22.76 67.78,23 129.85,62.92 178.27,115.68 13.77,14.44 26.09,30.2 37.59,46.47 2.4581,3.77143 3.96631,6.65479 6.21,10.82 -69.66,30.74 -139.25,61.63 -208.89,92.4 C 547.27,249.7 495.75,226.39 443.08,224 c -6.72,-0.01 -13.48199,-0.74947 -20.15,0 -134.55241,15.12339 -199.13356,105.87557 -197.92,225.03 1.13267,111.21187 89.79254,171.96657 182.83,190.12 44.26652,8.63726 113.03431,-12.70181 151.61,-41.68 25.00364,-18.78282 45.24,-43.65 59.46,-71.47 l -139.8996,0 0,-172.96 C 592.6704,352.95 707.33,353.03 821,353 c 0.04,-98.34 -0.07,-196.67 0.05,-295 l 287.78,0.01 243.14,392.45 0.11,-392.44 L 1615,58 l 0,757 -278.91,0 -257.13,-386.4 0.04,386.4 -258,0 c -0.06,-64.68 0.11,-129.35 -0.08,-194.03 -3.17,5.84 -5.78,11.99 -9.51,17.51 -2.91,6.72 -6.89,12.94 -10.86,19.08 -7.02,12.63 -15.66,24.26 -24.26,35.83 -15.66,21.34 -33.83,40.74 -53.25,58.69 -41.29,37.68 -89.92,67.34 -142.46,86.49 -44.72,16.55 -92.23,25.27 -139.88,26.43 l -16.47,0 C 352.4,863.62 280.98,844.16 218.57,808.53 157.03,773.6 104.36,723.25 66.69,663.35 46.61,631.52 30.72,597.06 19.55,561.13 7.44,522.5 1.13,482.18 0,441.74 l 0,-20.4 C 0.36,414.52 0.8,407.72 1.18,400.91 6.65,323.99 33.33,248.74 77.4,185.47 111.38,136.5 155.65,94.72 206.49,63.61 271.7,23.51 347.73,1.43 424.26,0 Z"
       id="path5"
       inkscape:connector-curvature="0"
       style="opacity:1;fill:url(#linearGradient4147);fill-opacity:1"
       sodipodi:nodetypes="ccccccccssssccccccccccccccccccccccccccccccc" />
  </g>
  <g
     id="#d85993ff"
     style="fill-opacity:1;fill:url(#linearGradient4148)">
    <path
       d="m 1142.7,55 185.3,0 0,304.44 z"
       id="path8"
       inkscape:connector-curvature="0"
       style="opacity:1;fill:url(#linearGradient4148);fill-opacity:1"
       sodipodi:nodetypes="cccc" />
  </g>
</svg>
